packages/crayons-core/src/components/icon/icon-assets/icons/vertical-align-center.svg

<?xml version="1.0" encoding="UTF-8"?>
<svg width="16px" height="16px" viewBox="0 0 16 16" version="1.1" xmlns="http://www.w3.org/2000/svg" xmlns:xlink="http://www.w3.org/1999/xlink">
    <!-- Generator: Sketch 52.6 (67491) - http://www.bohemiancoding.com/sketch -->
    <title>icon/vertical-align-center</title>
    <desc>Created with Sketch.</desc>
    <g id="Icons-✅" stroke="none" stroke-width="1" fill="none" fill-rule="evenodd">
        <g id="Icons" transform="translate(-572.000000, -804.000000)" fill="currentColor">
            <g id="icon/vertical-align-center" transform="translate(572.000000, 804.000000)">
                <g id="vertical-align-center">
                    <path d="M15.3,7.3 L14,7.3 L14,4.8 C14,4.41340068 13.6865993,4.1 13.3,4.1 L9.7,4.1 C9.31340068,4.1 9,4.41340068 9,4.8 L9,7.3 L7,7.3 L7,0.8 C7,0.614348457 6.92625021,0.436300718 6.79497475,0.305025253 C6.66369928,0.173749788 6.48565154,0.1 6.3,0.1 L2.7,0.1 C2.31340068,0.1 2,0.413400675 2,0.8 L2,7.3 L0.7,7.3 C0.44991408,7.29999999 0.218825156,7.43341923 0.0937821928,7.64999999 C-0.0312607703,7.86658075 -0.0312607703,8.13341925 0.0937821928,8.35000001 C0.218825156,8.56658077 0.44991408,8.70000001 0.7,8.7 L2,8.7 L2,15.2 C2,15.5865993 2.31340068,15.9 2.7,15.9 L6.3,15.9 C6.68659932,15.9 7,15.5865993 7,15.2 L7,8.7 L9,8.7 L9,11.2 C9,11.5865993 9.31340068,11.9 9.7,11.9 L13.3,11.9 C13.6865993,11.9 14,11.5865993 14,11.2 L14,8.7 L15.3,8.7 C15.6865993,8.7 16,8.38659932 16,8 C16,7.61340068 15.6865993,7.3 15.3,7.3 Z M3.4,1.5 L5.6,1.5 L5.6,7.3 L3.4,7.3 L3.4,1.5 Z M5.6,14.5 L3.4,14.5 L3.4,8.7 L5.6,8.7 L5.6,14.5 Z M10.4,5.5 L12.6,5.5 L12.6,7.3 L10.4,7.3 L10.4,5.5 Z M12.6,10.5 L10.4,10.5 L10.4,8.7 L12.6,8.7 L12.6,10.5 Z" id="Shape"></path>
                </g>
            </g>
        </g>
    </g>
</svg>

<svg viewBox="0 0 16 16"><path d="M15.3 7.3H14V4.8a.7.7 0 0 0-.7-.7H9.7a.7.7 0 0 0-.7.7v2.5H7V.8a.7.7 0 0 0-.7-.7H2.7a.7.7 0 0 0-.7.7v6.5H.7a.7.7 0 1 0 0 1.4H2v6.5a.7.7 0 0 0 .7.7h3.6a.7.7 0 0 0 .7-.7V8.7h2v2.5a.7.7 0 0 0 .7.7h3.6a.7.7 0 0 0 .7-.7V8.7h1.3a.7.7 0 0 0 0-1.4zM3.4 1.5h2.2v5.8H3.4V1.5zm2.2 13H3.4V8.7h2.2v5.8zm4.8-9h2.2v1.8h-2.2V5.5zm2.2 5h-2.2V8.7h2.2v1.8z" fill="currentColor" fill-rule="evenodd"/></svg>
